public/penny.svg

<svg fill="none" height="59" viewBox="0 0 60 59" width="60" xmlns="http://www.w3.org/2000/svg" xmlns:xlink="http://www.w3.org/1999/xlink"><linearGradient id="a" gradientUnits="userSpaceOnUse" x1="-3.47409" x2="72.2512" y1="12.9315" y2="40.3175"><stop offset=".00800497" stop-color="#38dbff"/><stop offset="1" stop-color="#243aff"/></linearGradient><path d="m30 5.57963c-13.1825 0-23.92129 10.73077-23.92129 23.92527 0 13.1847 10.73879 23.9155 23.92129 23.9155 13.1922 0 23.9213-10.7308 23.9213-23.9155 0-13.1945-10.7291-23.92527-23.9213-23.92527zm1.8401 40.89787v3.7684h-4.2352v-3.8658c-6.1531-.7887-9.9696-4.7033-10.3882-10.4387h6.4744c.0973 3.3108 2.2782 5.3654 6.1531 5.3654 3.2129 0 5.6761-1.4509 5.6761-4.0119 0-2.0059-1.6259-3.1647-4.0015-3.6808l-4.7511-.9835c-4.5175-1.0224-8.3925-3.1647-8.3925-8.7541 0-5.0343 3.7776-8.8125 9.2297-9.6012v-3.9145h4.2352v3.9145c5.7345.7498 9.736 4.5669 10.1644 10.2537h-6.4842c-.185-3.0771-2.3756-5.1317-5.5885-5.1317-2.9792 0-4.9848 1.5385-4.9848 3.9632 0 2.1422 1.9083 3.1257 4.0113 3.5444l4.6537.9738c5.5009 1.1685 8.8111 3.8269 8.8111 8.5788 0 5.5407-3.9625 9.5039-10.583 10.02zm-1.8401-40.89787c-13.1825 0-23.92129 10.73077-23.92129 23.92527 0 13.1847 10.73879 23.9155 23.92129 23.9155 13.1922 0 23.9213-10.7308 23.9213-23.9155 0-13.1945-10.7291-23.92527-23.9213-23.92527zm1.8401 40.89787v3.7684h-4.2352v-3.8658c-6.1531-.7887-9.9696-4.7033-10.3882-10.4387h6.4744c.0973 3.3108 2.2782 5.3654 6.1531 5.3654 3.2129 0 5.6761-1.4509 5.6761-4.0119 0-2.0059-1.6259-3.1647-4.0015-3.6808l-4.7511-.9835c-4.5175-1.0224-8.3925-3.1647-8.3925-8.7541 0-5.0343 3.7776-8.8125 9.2297-9.6012v-3.9145h4.2352v3.9145c5.7345.7498 9.736 4.5669 10.1644 10.2537h-6.4842c-.185-3.0771-2.3756-5.1317-5.5885-5.1317-2.9792 0-4.9848 1.5385-4.9848 3.9632 0 2.1422 1.9083 3.1257 4.0113 3.5444l4.6537.9738c5.5009 1.1685 8.8111 3.8269 8.8111 8.5788 0 5.5407-3.9625 9.5039-10.583 10.02zm-1.8401-46.4775c-16.2883 0-29.5 13.2042-29.5 29.5049 0 16.2909 13.2117 29.4951 29.5 29.4951s29.5-13.2042 29.5-29.4951c0-16.3007-13.2117-29.5049-29.5-29.5049zm0 55.8158c-14.5066 0-26.3066-11.8019-26.3066-26.3109s11.8-26.31097 26.3066-26.31097 26.3066 11.80197 26.3066 26.31097-11.8 26.3109-26.3066 26.3109zm0-51.64812c-13.9711 0-25.333 11.36372-25.333 25.33722 0 13.9637 11.3619 25.3372 25.333 25.3372s25.333-11.3735 25.333-25.3372c0-13.9735-11.3619-25.33722-25.333-25.33722zm0 49.73952c-13.4551 0-24.40808-10.945-24.40808-24.4023 0-13.4671 10.95298-24.41214 24.40808-24.41214s24.4081 10.94504 24.4081 24.41214c0 13.4573-10.953 24.4023-24.4081 24.4023zm0-48.32757c-13.1825 0-23.92129 10.73077-23.92129 23.92527 0 13.1847 10.73879 23.9155 23.92129 23.9155 13.1922 0 23.9213-10.7308 23.9213-23.9155 0-13.1945-10.7291-23.92527-23.9213-23.92527zm1.8401 40.89787v3.7684h-4.2352v-3.8658c-6.1531-.7887-9.9696-4.7033-10.3882-10.4387h6.4744c.0973 3.3108 2.2782 5.3654 6.1531 5.3654 3.2129 0 5.6761-1.4509 5.6761-4.0119 0-2.0059-1.6259-3.1647-4.0015-3.6808l-4.7511-.9835c-4.5175-1.0224-8.3925-3.1647-8.3925-8.7541 0-5.0343 3.7776-8.8125 9.2297-9.6012v-3.9145h4.2352v3.9145c5.7345.7498 9.736 4.5669 10.1644 10.2537h-6.4842c-.185-3.0771-2.3756-5.1317-5.5885-5.1317-2.9792 0-4.9848 1.5385-4.9848 3.9632 0 2.1422 1.9083 3.1257 4.0113 3.5444l4.6537.9738c5.5009 1.1685 8.8111 3.8269 8.8111 8.5788 0 5.5407-3.9625 9.5039-10.583 10.02z" fill="url(#a)"/></svg>

<svg width="60" height="59" viewBox="0 0 60 59" fill="none" xmlns="http://www.w3.org/2000/svg">
<path d="M30 5.57963C16.8175 5.57963 6.07871 16.3104 6.07871 29.5049C6.07871 42.6896 16.8175 53.4204 30 53.4204C43.1922 53.4204 53.9213 42.6896 53.9213 29.5049C53.9213 16.3104 43.1922 5.57963 30 5.57963ZM31.8401 46.4775V50.2459H27.6049V46.3801C21.4518 45.5914 17.6353 41.6768 17.2167 35.9414H23.6911C23.7884 39.2522 25.9693 41.3068 29.8442 41.3068C33.0571 41.3068 35.5203 39.8559 35.5203 37.2949C35.5203 35.289 33.8944 34.1302 31.5188 33.6141L26.7677 32.6306C22.2502 31.6082 18.3752 29.4659 18.3752 23.8765C18.3752 18.8422 22.1528 15.064 27.6049 14.2753V10.3608H31.8401V14.2753C37.5746 15.0251 41.5761 18.8422 42.0045 24.529H35.5203C35.3353 21.4519 33.1447 19.3973 29.9318 19.3973C26.9526 19.3973 24.947 20.9358 24.947 23.3605C24.947 25.5027 26.8553 26.4862 28.9583 26.9049L33.612 27.8787C39.1129 29.0472 42.4231 31.7056 42.4231 36.4575C42.4231 41.9982 38.4606 45.9614 31.8401 46.4775ZM30 5.57963C16.8175 5.57963 6.07871 16.3104 6.07871 29.5049C6.07871 42.6896 16.8175 53.4204 30 53.4204C43.1922 53.4204 53.9213 42.6896 53.9213 29.5049C53.9213 16.3104 43.1922 5.57963 30 5.57963ZM31.8401 46.4775V50.2459H27.6049V46.3801C21.4518 45.5914 17.6353 41.6768 17.2167 35.9414H23.6911C23.7884 39.2522 25.9693 41.3068 29.8442 41.3068C33.0571 41.3068 35.5203 39.8559 35.5203 37.2949C35.5203 35.289 33.8944 34.1302 31.5188 33.6141L26.7677 32.6306C22.2502 31.6082 18.3752 29.4659 18.3752 23.8765C18.3752 18.8422 22.1528 15.064 27.6049 14.2753V10.3608H31.8401V14.2753C37.5746 15.0251 41.5761 18.8422 42.0045 24.529H35.5203C35.3353 21.4519 33.1447 19.3973 29.9318 19.3973C26.9526 19.3973 24.947 20.9358 24.947 23.3605C24.947 25.5027 26.8553 26.4862 28.9583 26.9049L33.612 27.8787C39.1129 29.0472 42.4231 31.7056 42.4231 36.4575C42.4231 41.9982 38.4606 45.9614 31.8401 46.4775ZM30 0C13.7117 0 0.5 13.2042 0.5 29.5049C0.5 45.7958 13.7117 59 30 59C46.2883 59 59.5 45.7958 59.5 29.5049C59.5 13.2042 46.2883 0 30 0ZM30 55.8158C15.4934 55.8158 3.6934 44.0139 3.6934 29.5049C3.6934 14.9959 15.4934 3.19393 30 3.19393C44.5066 3.19393 56.3066 14.9959 56.3066 29.5049C56.3066 44.0139 44.5066 55.8158 30 55.8158ZM30 4.16768C16.0289 4.16768 4.667 15.5314 4.667 29.5049C4.667 43.4686 16.0289 54.8421 30 54.8421C43.9711 54.8421 55.333 43.4686 55.333 29.5049C55.333 15.5314 43.9711 4.16768 30 4.16768ZM30 53.9072C16.5449 53.9072 5.59192 42.9622 5.59192 29.5049C5.59192 16.0378 16.5449 5.09276 30 5.09276C43.4551 5.09276 54.4081 16.0378 54.4081 29.5049C54.4081 42.9622 43.4551 53.9072 30 53.9072ZM30 5.57963C16.8175 5.57963 6.07871 16.3104 6.07871 29.5049C6.07871 42.6896 16.8175 53.4204 30 53.4204C43.1922 53.4204 53.9213 42.6896 53.9213 29.5049C53.9213 16.3104 43.1922 5.57963 30 5.57963ZM31.8401 46.4775V50.2459H27.6049V46.3801C21.4518 45.5914 17.6353 41.6768 17.2167 35.9414H23.6911C23.7884 39.2522 25.9693 41.3068 29.8442 41.3068C33.0571 41.3068 35.5203 39.8559 35.5203 37.2949C35.5203 35.289 33.8944 34.1302 31.5188 33.6141L26.7677 32.6306C22.2502 31.6082 18.3752 29.4659 18.3752 23.8765C18.3752 18.8422 22.1528 15.064 27.6049 14.2753V10.3608H31.8401V14.2753C37.5746 15.0251 41.5761 18.8422 42.0045 24.529H35.5203C35.3353 21.4519 33.1447 19.3973 29.9318 19.3973C26.9526 19.3973 24.947 20.9358 24.947 23.3605C24.947 25.5027 26.8553 26.4862 28.9583 26.9049L33.612 27.8787C39.1129 29.0472 42.4231 31.7056 42.4231 36.4575C42.4231 41.9982 38.4606 45.9614 31.8401 46.4775Z" fill="url(#paint0_linear_82_1420)"/>
<defs>
<linearGradient id="paint0_linear_82_1420" x1="-3.47409" y1="12.9315" x2="72.2512" y2="40.3175" gradientUnits="userSpaceOnUse">
<stop offset="0.00800497" stop-color="#38DBFF"/>
<stop offset="1" stop-color="#243AFF"/>
</linearGradient>
</defs>
</svg>
